X:1
T:Khvalitye imya Gospodie
T:Сергeй Рахманинов, 1915
T:Славословие великое
T:(Знаменново роспева) Всенощное бдение, Op. 37, No. 12
T:Public Domain
T:Public Domain
T:Public Domain
T:Public Domain
T:Public Domain
T:Public Domain
T:Public Domain
T:Public Domain
T:Public Domain
T:Public Domain
T:Public Domain
T:Public Domain
T:Public Domain
T:Public Domain
T:Public Domain
T:Public Domain
T:Public Domain
T:Public Domain
T:Public Domain
T:Public Domain
T:Public Domain
T:Public Domain
T:Public Domain
T:Public Domain
C:Sergei Rakhmanninov
Z:Public Domain
%%score [ ( 1 2 ) ( 3 4 ) ( 5 6 ) ( 7 8 9 ) ]
L:1/8
Q:1/4=150
M:12/4
K:Eb
V:1 treble nm="Сопрано" snm="С."
V:2 treble 
V:3 treble nm="Альтъ" snm="А."
V:4 treble 
V:5 treble-8 nm="Теноръ" snm="Т."
V:6 treble-8 
V:7 bass nm="Басъ" snm="Б."
V:8 bass 
V:9 bass 
V:1
"^Довольно скоро\nFairly fast" z16 z4 | z16 | z24 | z24 | %4
"^мягко\nsoftly"!p!"^Kла–ня   –   ем        Ти           ся,   сла-во - сло – вим         Тя,\nKla–nya   –  em        Ti           sya,   sla–vo – slo  – vim         Tya," !tenuto![Ac]4 [ce]4 !tenuto![GB]4 [ce]4 !tenuto![Bd]4 c2 c2 | %5
!>(! !tenuto!B4 [Gc]4!pp! B4 z4!>)! | z24 | z24 | %8
!pp!"^Бо     –    же.\nBo     –   zhe." !tenuto!e8 B2 x2 x4 x8 z8 | z16 z4 | z16 | %11
!mf!"^Гос– по–ди,  Сы  –   не       Е     –   ди–но–род  –   ный,\nGos–po–di,   Sui  –   ne      Ye    –    di– no–rod  –   nuii," (B2!<(! c2) d2 d2!>(! (dc B2) c4!<(! (cd e2) d2 d2!>(! (dc B2) c4"^И       –        –     и  –  су – се Хри - сте, \nI         –        –     i   –   su– se Khri –ste,"!<(! (d2 e2!<)!!>)!!<)!!>)!!<)! | %12
!f! f4) e4 !tenuto!e4 d2 c2 (dc B2 c8)!mf!"^певуче\nmelody""^и   Свя–\n i   Svya–"!<(! B2 c2!<)! | %13
"^–тый                    Ду   –  ше.                                                   Гос        –        по    –    ди          Бо       –       –       –           же, \n–tuii                      Du  –  she.                                                  Gos       –        po    –     di           Bo      –       –       –          zhe,"!>(! (d2 c2 B4)!>(!!<(! !tenuto!c4 (B4-!>(! B8 c4)!>)!!>)!!<)!!>)! | %14
!p!"^в зем–ляй грехи   ми-ра, прий-ми      мо–лит – ву  на –\nv zyem-lyai grekhi mi-ra, prii-mi          mo-lit  –   vu  na –"!<(! B8"^ослабляя звук\nmore relaxed" c4!>(! c4 B12!pp!!>(! (A8!<)!!>)!!>)! | %15
"^– шу.\n– shu." G8) z16 z8 z4 | %16
 z16"^Медленее\nSlower"[Q:1/4=120]"^певуче (melody)"!p! (F2!<(! G2)!<)! | %17
 !tenuto!A2 G2!>(! G2 F2 !tenuto!A4 G4 (!tenuto!F4 G4)!>)! | %18
"^задерживая \n(slowing)"[Q:1/4=100]!pp! A2 G2 A2 G2 !tenuto!A8 | %19
!p!!<(! !tenuto!e4 !tenuto!e4 !tenuto!e4 !tenuto!e4 !tenuto!e4!ff! !>![ce]8!<)! | %20
!>(! ([ce]2 [Bd]2 [=Ac]4)!p! !fermata!d4 z4!>)! | %21
!pp! z2"^короткими, отрывистыми звуками\nshort, staccato sounds""^Прежний темп\nFirst tempo"[Q:1/4=150]"^На всяк день бла-го-слов-лю Тя       и   вос-хва – лю и – мя  Тво-е     во            ве – ки    и  в век    ве – ка.\nNa vsyak den' bla–go–slov–lyu Tya     i    vos-khva-lyu  i – mya Tvo-ye  vo            ve – ki      i   v vek     be – ka." [Bd]2 !tenuto![cd]4 [Bd]2 [Bd]2 [Bd]2 [=Ad]2 | %22
 [Bd]2 !tenuto![Bd]4 [Bd]2 [Bd]2 [=Ad]2 | [Bd]2 [Bd]2 [Bd]2 [Bd]2!<(! [Bd]2 [Bd]2!<)! | %24
!>(! [Bd]2 [Bd]2 [Bd]2!<(! d2!>(! !tenuto!d8!>)!!<)!!>)! | %25
!p!"^– ка.                                               На                всяк    день   бла–го – слов– лю   Тя,    вос – хва– лю    и   –    мя     Тво –\n– ka.                                                Na               vsyak  den'     bla - go – slov – lyu   Tya,  vos – khva-lyu    i    –    mya  Tvo –" d8-!>(! d12!pp! [Gd]4!>)! | %26
 !tenuto![Gc]4!pp! [Ac]2 [Ac]2 [Ac]2 [Ac]2 [Ac]2 [Ac]2 [Gc]2 [Gc]2 [Gc]2!<(! c2 [Bc]2 [Ac]2!<)! | %27
"^–е                   во  ве–ки  и  в век  ве   –     ка.                             Спо   –    до     –     би,       Гос-по–ди, в день   сей со-хра–\n–ye                 vo  ve–ki    i   v  vek  ve   –     ka.                             Spo   –     do     –     bi,       Gos-po-di,  v  den'    sei  so-khra-"!>(! !tenuto!c6 [Ac]2 [Ac]2 [Ac]2 [Ac]2 [Ac]2!p!!>(! !tenuto![Gc]8!>)!!>)! | %28
!pp! [Fc]8- [Fc]4!pp! c4 | !tenuto!B6 B2 | B2 B2 B2 B2 | !tenuto!B4!<(! B2 B2!<)! | %32
 !tenuto!B4!>(! !tenuto!B4!<(! B2 B2!>)!!<)! |!>(! !tenuto!B4 !tenuto!B12!>)! |!pp! B4 B4 | %35
 B4 B2 B2 !tenuto!uB8 | %36
[Q:1/4=110]"^Медленее, певуче\nSlower, melodious"!p!"^Бу – ди, Гос – по–ди, ми – лость,    Тво–я        на  нас,       я–ко–же у – по – ва   –    хом   на        Тя.                     По –\nBu – di,  Gos – po-di,  mi  – lost',       Tvo-ya      na  nas,      ya-ko-zhe u – po – va  –   khom na       Tya.                   Po – \n"!<(! G2 A2!>(! !tenuto!B4 A2!<(! A2 !tenuto!A4!>(! A4- A2!p! A2 A!<(!G F2 !tenuto!G8!<)!!>)!!<)!!>)!!<)! | %37
[Q:1/4=100]"^Еще шире \nBroader"!mf! [ce]2 [ce]2!<(! [ce]2 [=Bd]4 [ce]2!ff! [df]8!>(! [ce]4 [ce]4!p! !fermata![Bd]8 z4!p![Q:1/4=150] ([Bd]2!<(! [ce]2)!<)!!>)!!<)! | %38
!mf!"^–ми        –       –       –       –       –       –       –          луй              мя.                                             Ис–це – ли \n–mi        –       –       –       –       –       –       –           lui               mya.                                           Is –tse –  li""^В прежнем темпе\nIn former tempo" (!tenuto![df]12!>(! [ce]4!>)! | %39
!p! [=Bd]4 [ce]4)!<(! ([Bd]2 [ce]2)[Q:1/4=120]"^задерживая \n(slowing)" (!>![df]4-!<)! | %40
 [df]2 [ce]2 [=Bd]4- [Bd]2) z2[Q:1/4=150]"^В темпе\nIn tempo"!<(! [Bd]2 [ce]2!<)! | %41
!mf!!>(! (!tenuto![df]12- [df]2 [ce]2)!>)! | %42
"^ду     –    шу         мо       –      ю.                                    К Те    –   бе                                          при           –           бе       –      гох.\ndu     –    shu       mo      –      yu.                                   K Te    –   be                                           pri            –           be       –     rokh."!<(! ([=Bd]2 [ce]2)!>(! (!tenuto![df]2 [ce]2)!<(! ([=Bd]2 [ce]2)!f! (!>![df]4-!<)!!>)!!<)! | %43
!>(! [df]2 [ce]2!p! [=Bd]4- [Bd]2) z2!<(! ([Bd]2 [ce]2)!>)!!<)! | %44
!f!!>(! ([df]12- [df]2 [de]2)!>)! | %45
!<(! ([=Bd]2 [ce]2!>(! !tenuto![df]2 [ce]2)!<(! ([=Bd]2 [ce]2)!ff!"^задерживая\n (slowing)"[Q:1/4=120] (!>![df]4-!<)!!>)!!<)! | %46
!>(! [df]2 [ce]2!p! [=Bd]8- [Bd]2) z2!>)! | %47
"^В темпе\nIn tempo"[Q:1/4=150]!ppp!"^Гос–по–ди,  при  –  бе       –       –       –       –       –      жи    –     ще    был                            е –  си\nGos-po–di,   pri    –  be       –       –       –       –       –      zhi    –  shche  buil                           ye – si" z16 | %48
 z16 | z16 |!p! z16 | %51
"^нам.                                                                                 Ис       –        це – ли                                         ду          –           шу\nnam.                                                                                 Is       –        tse – li                                            du         –         shu" z16 | %52
 z8 z4 z2!pp! (de | [df]2)!>(! [ce]2 [=Bd]4 z4!<(! z2 (([Bd][ce]!>)!!<)! | %54
!>(! !tenuto![df]2 [ce]2)) [=Bd]4!>)! | %55
 z2"^мо   –  ю.                              я       –       –      ко     со  – гре   – ших Те – бе,              на – у   –   чи             мя         тво–\nmo  –  yu.                            ya      –       –      ko     so  – gre  – shikh Te – be,             na – u  –    chi           mya       tvo–"!<(! ([=Bd][ce]) (!>![df]2!>(! [ce]2 [Bd]4)!<(! ([Bd]2 [ce]2!<)!!>)!!<)! | %56
"^Темп бсё оживленнее, \nзвучность остается легкой\nAlways animated tempo,  remains soft."[Q:1/4=160]!mf!!>(! [df]4) [ce]4!p! [Bd]2 [Bd]2!>)! | %57
 [Bd]2 [Bd]2 (!tenuto!c2 Bc)!<(! d2 e2!<)! | (!tenuto!f2 ed) !tenuto!e8 | %59
!p!"^–ри – ти     вол–ю    Тво– ю,        я   –   ко         Ты   е   –    си                      Бог       мой:     я  –   ко      у      Те  –  бе    ис –\n– ri  –  ti       vol –yu   Tvo–yu,       ya  –  ko         Tui  ye  –    si                       Bog      moi:     ya  – ko       u      Te  – bye   is –""^я        –       ко              Ты                                       е         –        си                     Бог        мой:\nya       –      ko              Tui                                     ye         –        si                      Bog       moi:" d4!<(! (c2 Bc)!>(! (d4-!<)!!>)! | %60
 d2 cB)!<(! (!tenuto!c2 Bc) (d3 e)!<)! |!>(! ((d4 c4)) B4!>)! |!p! f2 e2 e2 dc d2!<(! Bc!<)! | %63
"^–точ –ник  жи  –   во – та,          во       све  – те         Тво – ем                    у  –   зрим   свет.     Про–ба–ви  ми–лость Тво–\n–toch-nik   zhi  –    vo – ta,           vo       sve  – te          Tvo – yem                 u  –  zrim    svet.      Pro–ba– vi    mi–lost'   Tvo–"!>(! d2 d2 ed!<(! c2 !tenuto!d4!>)!!<)! | %64
!mf! e2 e2 ed c2!<(! (!tenuto!c2 d[ce])!<)! | !tenuto![Bf]4!>(! [Be]4 [Bd]4!>)! | %66
 e2 [df]2!<(! [df]2 [df]2 [df]2 [eg]2!<)! | %67
!ff!"^–ю                          ве        –           ду–щим Тя.    Свя-тый Бо-же,   Свя-тый Креп-кий, Свя-тый Без – смерт-ный, по–\n–yu                         ve        –       dushchim Tya,  Svya-tui  Bo-zhe, Svya-tui  Krep–kii,   Svya-tui   Bez – smert-nui,   po–\n" (a4 g2 fg) (a4 g2 ag) | %68
!>(! [df]4 [ce]4 [df]8!>)! |!p! c2 c2 [Bd]2 cd | [Be]2 [Be]2 !tenuto![Bd]2 cd | %71
 ed [Be]2!<(! (d2 e2)!<)! |!mf! !tenuto![cf]4!>(! [ce]2 [cd]2!>)! | %73
!p!"^–ми–луй нас. Святый Бо – же,    Святый Крепкий,  Свя – тый Без – смертный, по–ми-луй нас. Святый Бо –же, \n–mi– lui  nas.  Svyatui  Bo –zhe,   Svyatui  Krepkii,      Svya – tui  Bez – smertnuii, po– mi–lui  nas. Svyatui  Bo–zhe,  \n" !tenuto![ce]4 !tenuto![=Bd]4!pp! !tenuto!c4 | %74
!p! c2 c2 [=Bd]2 [=Ac][Bd] | [ce]2 [ce]2 [=Bd]2 [=Ac][Bd] | [ce][=Bd] [ce]2!<(! ([Bd]2 [ce]2)!<)! | %77
!>(! !tenuto![cf]4 [ce]2 [cd]2!>)! |!p! !tenuto![ce]4!>(! !tenuto![=Bd]4 !tenuto!c4!>)! | %79
!pp! !tenuto!c2 c2 !tenuto![=Bd]2 [=Ac][Bd] | %80
"^Свя-тый Креп-кий,  Свя  – тый   Без      –   смерт-ный, по  –  ми – луй   нас.\nSvya-tui  Krep– kii,    Svya – tui     Bez      –   smert-nuii, po   –  mi  – lui    nas." !tenuto![ce]2 [ce]2 !tenuto![=Bd]2 [=Ac][Bd] | %81
 !tenuto![ce][=Bd] [ce]2!<(! ([Bd]2 [ce]2)!<)! |!f! !tenuto![df]4!>(! [ce]2 [cd]2!>)! | %83
!p! !tenuto![ce]4!<(! !tenuto![=Bd]4 !tenuto!c4!<)! | %84
!mf!"^Сла  –  ва    От–цу    и      Сы–ну\nSla   –   va    Ot–tsu    i       Sui-nu" [Bd]4 [Bd]2 [Be]2 !tenuto![Bd]2 [Bd]2 [Bd]2 [Bd]2 | %85
"^и    Свя –то –му       Ду –  ху,        и   ны–не   и при-сно и   во     ве  – ки веков, Аминь.    Свя     –     –    тый  Без –\n i    Svya–to– mu      Du – khu,      i    nui–ne   i  pri –sno  i    vo     ve  – ki   vekov, Amin'.     Svya    –      –    tui    Bez –" [Bd]2 [Bd]2 [Bd]2!<(! de!>(! !tenuto![Bf]4 [Be]4!<)!!>)! | %86
 [ce]2 [ce]2 [ce]2 [ce]2 !>![Be]2 [ce]2 [ce]2 [Be]2 | !>![ce]4 [ce]2 [ce]2 [df]2 [ce]2 !>![df]4 | %88
!f! ([df]4 [ce]4) [df]4 (e2 f2) | %89
"^–смерт-ный, по –ми–луй нас.       Свя     –    тый           Бо     –      же,                 Свя    –    тый            Креп    –     кий,\n–smert–nui,   po– mi– lui  nas.       Svya    –    tui             Bo    –      zhe,                Svya   –    tui               Krep    –     kii," !>!g4!mf! f2 e2 f2 e2 !tenuto!d4 | %90
!f!"^акцентируя каждую ноту\naccentuating every note" c4 d4 e4 d4 | (f2 e2) f4 e4 d4 | %92
"^задерживая \nslowing"[Q:1/4=110]"^Свя     –      тый    Без  –  смерт–ный, по   –   ми – луй  нас.\nSvya    –      tui      Bez  –  smert–nui,   po  –    mi –  lui   nas.      \n" (f2 e2)!<(! [df]2 [eg]2!ff! !>![fa]4!>(! [eg]2 [df]2!<)!!>)! | %93
[Q:1/4=70]!>(! !tenuto![eg]4 !tenuto![df]4!p! !fermata![ce]8!>)! |] %94
V:2
 x20 | x16 | x24 | x24 | x24 | x4 x4 B8- | B16- B8- | B16- B8 | (c4 B4) B8- B8 x8 | x20 | x16 | %11
 x4 x4 x4 x4 x4 x4 x4 x4 B4- | B8- B8- B2 z2 z4 z4 B2 c2 | x28 | x36 | x36 | x20 | x24 | x16 | %19
 !tenuto!cBAB !tenuto!cBAB !tenuto!cBAB !tenuto!cBAB !tenuto!cBAB x8 | x16 | x16 | x12 | x12 | %24
 x4 x2 =AB (c4 B4) | (=A8 G12) x4 | x8 x8 x4 x2 GA x4 | (B4 A2) x2 x16 | x16 | x8 | x8 | x8 | x12 | %33
 x16 | x8 | x16 | x36 | x16 x16 x8 (G2 c2) | B12 c4 | G4 c4 (G2 c2) (_B4- | %40
 B2 c2 G4- G2) x2 G2 c2 | B12- B2 c2 | (G2 c2) (_B2 c2) (G2 c2) (_B4- | B2 c2 G4- G2) x2 (G2 c2) | %44
 (B12- B2 c2) | G2 c2 _B2 c2 (G2 c2) (_B4- | B2 c2 G8- G2) x2 | %47
 !tenuto!F4 !tenuto!E4 !tenuto!D4 !tenuto!E4 | (F4 E4 D4 E4 | %49
 !tenuto!F4) !tenuto!E4 !tenuto!D4!<(! (!tenuto!E4 | !>!F8)!ppp! !tenuto!E4 !tenuto!E4!<)! | D16 | %52
 x8 x4 x2 =Bc | x16 | x8 | x16 | x12 | x8 d2 c2 | (d2 cB) (c4 B2) B2 | .B2 .B2 .B2 .B2 .B2 .B2 | %60
 .B2 .B2 .B2 .B2 (B3 c) | d4 c4 B4 | x12 | x12 | x12 | x12 | x12 | %67
 !>!e2 !>!f2 !>!c2 !>!f2 (!>!e2 !>!f2 !>!c2 !>!fe) | x16 | x4 x2 B2 | x4 x2 B2 | B2 B2 B4 | x8 | %73
 x12 | x8 | x8 | x8 | x8 | x12 | x8 | x8 | x8 | x8 | x12 | x16 | x16 | x16 | x16 | x16 | x16 | %90
 x16 | x16 | x16 | x16 |] %94
V:3
!p!"^Сла    –    ва в вышних Бо – гу,            и   на   земли  мир,   в че-ло-ве-цех бла–го– во–ле –ни–е.\nSla     –    va v vuishnikh Bo–gu,             i     na   zemlyi  mir,  v che-lo-ve-tsyekh bla-go-vo–le – ni–ye." (!tenuto!E2 F2 G2) G2 GF E2 !tenuto!F4 (FG A2) | %1
 G2 G2 GF E2 !tenuto!F8 | G2 G2 G2 G2 !tenuto!G4 GF E2 !tenuto!F4!<(! F2 G2!<)! | %3
"^Хва-лим Тя,    бла-го-сло-вим Тя,        кла–ня–ем Ти ся, сла-во-сло-вим Тя,  бла– го – да – рим Тя,  ве –\nKhva-lim Tya,  bla– go–slo –vim  Tya,       kla – nya-em Ti sya, sla–vo–slo – vim  Tya, bla – go –  da –  rim Tya, ve –"!>(! !tenuto!A4 G2 G2- G2 G2 GF E2 !tenuto!F4 (F2 G2)!>)! | %4
!p! !tenuto!A4 G2 G2 G2 G2 GF E2 F4 G2 G2 | !tenuto!G4 GF E2 F4!<(! F2 G2!<)! | %6
!mf!"^-\nли-ки-я  ра-ди слав-ы Тво-е-я.     Гос–по–ди    Ца–рю Не-бес-ный,    Бо–же  От    –  че Все-дер-жи-те-лю,\n–li–ki–ya  ra–di  slav–ui Tvo-e-ya.    Gos–po–di   Tsa-ryu Ne-bes-nui,      Bo-zhe  Ot  –  che Vse-der-zhi-te–lyu," !tenuto!A4 G2!>(! G2 G2 G2 G2 G2 GF E2 !tenuto!F4!>)! | %7
!mf! !tenuto!A4 G2!>(! G2- G2 G2 GF E2 F4 (F2 G2)!>)! | %8
!p! !tenuto!A4 G4"^Бо    –    же  От  –  че.\nBo    –   zhe  Ot  – che." !tenuto!A4 G4 G2 G2 GF E2 F8- | %9
"^Гос      –       по –   ди,     Сы        –       не             Е            –          ди  –  но   –  род       –       –       –       –         ный,\nGos     –       po  –  di,      Sui        –       ne             Ye          –          di   –  no   –  rod       –       –       –       –          nuii" F8 z4!p!"^Гос   –    по   –    ди,       Сы        –       не           Е    –   ди    –   но  –  род – \nGos  –   po  –   di,       Sui     –      ne        Ye  –  di    –  no  –  rod –" !tenuto!A4 G2 G2 | %10
 !tenuto!G4 G2 G2 GF !tenuto!E2 !tenuto!F4- | %11
 F4"^– ный, И   –   и–су  –  се  Хри-сте,     и    Свя-тый     Ду–ше.      Господи Боже, Агнче Божий, Сы-не   От-ечь,\n– nuii,  I    –    i –su  –  se Khri-ste,      i    Svya-tuii     Du-she.    Gospodi Bozhe, Agnche Bozhi, Sui-ne   Ot-ech',"!<(! (F2 G2) A2 G2 !tenuto!A4!>(! G2 G2 !tenuto!G4!p! G2 G2 (!tenuto!GF E2) F2 FG!<)!!>)! | %12
!mf! !tenuto!A4 G2 G2 G2 G2!>(! G2 G2 G2 G2!p! !tenuto!G4 GF E2 F4!>)! | %13
"^в зем – ляй грех ми – ра,  по – ми – луй      нас;         в зем     –      ляй        гре   –     хи                                    ми –\nv zyem-lyai grekh mi –ra,  po – mi –  lui       nas;          v zyem  –     lyai         gre   –    khi                                    mi –" !tenuto!A4 G2 G2 !tenuto!G4!<(! G2 G2!>(! !tenuto![FA]4 [EG]4!<(! (F2 G2)!<)!!>)!!<)! | %14
 A4!>(! G2 G2 G2 G2 G2 G2 G6 G2 GF E2 F8!>)! |!ppp!"^– pa.\n– ra." E2 z2 z16 z16 | %16
 x16!pp!"^Ты                    е  –   си    е-дин\nTui                   ye  –  si   ye-din" E4- | %17
!>(! E4 E4 !tenuto!E4 E4 E8!>)! | %18
!pp!"^Иисус Христос,  в сла       –         ву                   Бо         –         га                    От        –          ца.             А         –        минь.\n Iisus  Khristos,  v  sla        –         vu                   Bo        –         ga                    Ot         –         tsa.             A         –        min'." E2 E2 E2 E2 !tenuto!E8 | %19
!p!!<(! !tenuto!ABcB !tenuto!ABcB !tenuto!ABcB !tenuto!ABcB !tenuto!ABcB!ff! !>!G8!<)! | %20
!>(! G8!p! !fermata![^F=A]4 z4!>)! |!pp! z2 G2 !tenuto!=A4 G2 F2 G2 D2 | G2 !tenuto!G4 F2 G2 D2 | %23
 G2 G2 G2 F2 G2!<(! G=A!<)! |!>(! B2 B2 B2!<(! =AG!>(! (A4 G4)!>)!!<)!!>)! | %25
!p! D8-!>(! D12!pp! !tenuto!D4!>)! | !tenuto!C4 F2!pp! E2 F2 C2 F2 E2 F2 C2 E2!<(! EF G2 F2!<)! | %27
!>(! (!tenuto!G2 FE F2) E2 F2 C2 FE D2!p!!>(! E8!>)!!>)! |!pp! C8- C4!pp! F4 | %29
 (!tenuto![FA]4 [E_G]2) [_DG]2 | [E_G]2 [B,G]2 [EG]2 G2 | [_D_G]4!<(! [DF]2 [EG]2!<)! | %32
"^–ни       –         ти        –       ся   нам,   в день   сей                                        со     –    хра     –    ни      –    ти  –   ся   нам.\n–ni        –          ti         –       sya nam,  v  den'    sei                                         so     –    khra   –     ni      –     ti    –  sya  nam." !tenuto!A4!>(! !tenuto!_G4!<(! [=DF]2 [EG]2!>)!!<)! | %33
!>(! !tenuto![FA]4 _G12!>)! |!pp! [E_G]4 [B,G]4 | [E_G]4 G2 [CG]2 !tenuto!u[DF]8 | %36
!p!!<(! [B,E]2 [_CE]2!>(! !tenuto![_DE]4 [CE]2!<(! [DE]2 !tenuto!E4!>(! D4- D2!p! E2!<(! E2 E2 !tenuto!E8!<)!!>)!!<)!!>)!!<)! | %37
!mf! [EG]2 [EG]2!<(! [EG]2 [DG]4 [EG]2!ff! [FA]8!>(! [EG]4 [EG]4!p! !fermata![DG]8 z8!<)!!>)! | %38
 z4!mf!"^Благословен    е-си,   Господи, научи  мя о-прав-да     ни-ем Тво-им.                                   Благословен    е-си,\nBlagoslovyen   ye-si,   Gospodi, nauchi mya oprav-da    ni –em Tvo-im.                                  Blagoslovyen   ye-si," (3F2 F2 G2 !>!A4- (3A2 G2 G2 | %39
 (3G2 G2 G2 (3G2 G2 G2 (3:2:4G2 G2!<(! FG !>!A4!<)! |!>(! (3A2 G2 G2!p! F8- F2 z2!>)! | %41
!mf! z4!<(! (3F2 F2 G2 !>!A4-!>(! (3A2 G2 G2!<)!!>)! | %42
"^Господи, научи  мя о-прав-да-ни-ем Тво-им.                           Благословен   е-си,   Господи, научи мя о-прав-да–\nGospodi, nauchi mya oprav-da-ni–em Tvo-im.                           Blagosloven    ye-si,  Gospodi, nauchi mya opravda–" (3G2 G2 G2 (3G2 G2 G2 (3:2:4G2!<(! G2 FG!>(! !>!A4!<)!!>)! | %43
 (3A2 G2 G2!p! F8- F2 z2 |!mf! z4!<(! (3F2 F2 F2 !>!A4-!>(! (3A2 G2 G2!<)!!>)! | %45
 (3G2 G2 G2 (3G2 G2 G2 (3:2:4G2!<(! G2 FG!ff! !>!A4!<)! | %46
!>(! (3A2"^–ни-ем Тво-им.\n–ni –em Tvo-im." G2 G2!p! F8- F2 z2!>)! | %47
!ppp!"^Гос–по–ди,  при  –  бе       –       –       –       –       –      жи    –     ще    был                            е –  си\nGos-po–di,   pri    –  be       –       –       –       –       –      zhi    –  shche  buil                           ye – si" z16 | %48
 z8 z4!p!"^К Те    –   бе   при–бе–гох.\nK Te    –   be   pri  –be–rokh." !tenuto!G4 | %49
 !tenuto!G4 G2!<(! FG!>(! (!tenuto!A4!p!!<(! G4)!<)!!>)!!<)! |!p!!>(! z16!>)! | %51
"^нам.\nnam." x8!mf!"^Аз –рех:     Гос – по–ди,       по–ми–луй      мя,  ис – це – ли     ду – шу   мо– ю,         я  –  ко   со  –гре–\nAz –pekh:  Gos – po–di,        po–mi– lui      mya, is  – tse– li       du – shu  mo-yu,      ya  –  ko   so –gre–" !tenuto!F4 !tenuto!G4 | %52
 !tenuto!A4!p! G2 G2- G2 F2 G2 G2 | G2 G2 G2 G2 G2 G2 G2 G2 | G2 G2 G2!<(! FG!<)! | %55
"^–ших          Те     –      бе. \n –shik         Te      –      be." !>!A4!>(! G4 (F4-!<(! F2 G2)!>)!!<)! | %56
!mf!"^Гос –  по  –  ди,            к Те – бе  при–бе  – гох,            нa – у   –  чи   мя   тво– \nGos –  po  –  di.             k Te – bye pri– be – gokh,          na– u   –  chi  mya tvo–" !tenuto!A4!>(! !tenuto!G4 !tenuto!G4!>)! | %57
 .G2 .G2 .G.F .E2 !tenuto!F4 | .F2 .G2 !tenuto!A4 G2 .G2 | %59
!p!"^–ри – ти     вол–ю    Тво– ю,        я   –   ко         Ты   е   –    си                      Бог       мой:     я  –   ко      у      Те  –  бе    ис –\n– ri  –  ti       vol –yu   Tvo–yu,       ya  –  ko         Tui  ye  –    si                       Bog      moi:     ya  – ko       u      Te  – bye   is –" .G2 .G2 .G2 .G2 .G2 .G2 | %60
 .G2 .G2 .G2 .G2!<(! (!tenuto!G2 FG)!<)! |!>(! !>![FA]4 [EG]4 [DF]4!>)! | %62
!p! [AB]2 [GB]2 [GB]2 [GB]2 [GB]2!<(! [GB]2!<)! | %63
"^–точ –ник  жи  –   во – та,          во       све  – те         Тво – ем                    у  –   зрим   свет.     Про–ба–ви  ми–лость Тво–\n–toch-nik   zhi  –    vo – ta,           vo       sve  – te          Tvo – yem                 u  –  zrim    svet.      Pro–ba– vi    mi–lost'   Tvo–"!>(! [GB]2 [GB]2 B2!<(! B2 !tenuto!B4!>)!!<)! | %64
!mf! G2 [EG]2 [EG]2 [EG]2!<(! !tenuto!G2 FG!<)! | !tenuto!A4!>(! G4 F4!>)! | %66
 [GB]2 B2!<(! B2 B2 B2 B2!<)! |!ff! (!>!c4 G2 c2) (!>!c4 G2 c2) |!>(! [FB]4 G4 [FB]8!>)! | %69
!p!"^Свя-тый Бо-же,   Свя-тый Креп-кий, Свя-тый Без – смерт-ный, по–\nSvya-tui  Bo-zhe, Svya-tui  Krep–kii,   Svya-tui   Bez – smert-nui,   po–\n" [EG]2 [EG]2 !tenuto!F2 EF | %70
 G2 G2 !tenuto!F2 EF | GF G2 (F2 G2) |!mf! !tenuto!A4!>(! G2 A2!>)! | %73
!p!"^–ми–луй нас. Святый Бо – же,    Святый Крепкий,  Свя – тый Без – смертный, по–ми-луй нас.   Свя    –   тый \n–mi– lui  nas.  Svyatui  Bo –zhe,   Svyatui  Krepkii,      Svya – tui  Bez – smertnuii, po– mi–lui  nas.   Svya  –    tui   \n" !tenuto!G4 !tenuto![FG]4!pp! !tenuto![EG]4 | %74
!p! [EG]2 [EG]2 !tenuto![DG]2 G2 | [CG]2 [CG]2 !tenuto![DG]2 G2 | G2 [EG]2!<(! ([DF]2 E2)!<)! | %77
!>(! !tenuto!F4 G2 A2!>)! |!p! !tenuto!G4!>(! !tenuto![FG]4 !tenuto![EG]4!>)! | %79
!p! !tenuto!G4 !tenuto!G4 | %80
"^Бо     –     же,                Свя      –       тый   Без –смерт-ный, по – ми – луй   нас.  \nBo     –    zhe,                Svya    –       tui     Bez–smert– nui,   po – mi – lui     nas.\n" !tenuto!G4 !tenuto!G4 | %81
 !tenuto!G4 !tenuto!G2!<(! FG!<)! |!f! !>!A4!>(! G2 A2!>)! | %83
!p! !tenuto!G4!<(! !tenuto![FG]4 !tenuto![EG]4!<)! | %84
!mf!"^Сла  –  ва    От–цу    и      Сы–ну\nSla   –   va    Ot–tsu    i       Sui-nu" !tenuto![DF]4 [DF]2 [EG]2 !tenuto![DF]2 [DF]2 [DF]2 [DF]2 | %85
"^и    Свя –то –му       Ду –  ху,        и   ны–не   и при-сно и   во     ве  – ки веков, Аминь.    Свя     –     –    тый  Без –\n i    Svya–to– mu      Du – khu,      i    nui–ne   i  pri –sno  i    vo     ve  – ki   vekov, Amin'.     Svya    –      –    tui    Bez –" [DF]2 [DF]2 [DF]2!<(! [DF][EG]!>(! !tenuto![FA]4 [EG]4!<)!!>)! | %86
 [EG]2 [EG]2 [EG]2 [EG]2 !>![EG]2 [EG]2 [EG]2 [EG]2 | !>![EG]4 [EG]2 [EG]2 F2 [EG]2 !>!F4 | %88
!f! B8 B4 B4 | %89
"^–смерт-ный, по –ми–луй нас.      Свя-тый  Бо – же,   Свя-тый Креп-кий,  Свя–тый Бо – же,    Свя–тый  Креп-кий,\n–smert–nui,   po– mi– lui  nas.      Svya-tui   Bo – zhe, Svya-tui  Krep–kii,    Svya–tui   Bo – zhe,  Svya-tui     Krep-kii,\n" !>!B4!mf! [AB]2 [GB]2 [AB]2 [GB]2 !tenuto![FB]4 | %90
!ff! E2 E2 F2 EF G2 G2 F2 FG | A2 G2 A2 GF G2 FE F2 G2 | %92
"^Свя     –      тый    Без  –  смерт–ный, по   –   ми – луй  нас.\nSvya    –      tui      Bez  –  smert–nui,   po  –    mi –  lui   nas.      \n" A4!<(! G2 GA!ff! !>!B4!>(! c2 c2!<)!!>)! | %93
!>(! !tenuto![Gc]4 !tenuto![FG]4!p! !fermata![EG]8!>)! |] %94
V:4
 x20 | x16 | x24 | x24 | x24 | x16 | x24 | x24 | x4 x4 x4 x4 x4 z4 (D4 C4 | =B,4) z16 | x16 | x36 | %12
 x32 | x4 x4 x4 x4 x4 x4 E4 | (F4 D4) E4 C4 D4 B,4 C4 (C4 D4) | E16- E16- E4- | E16 x4 | x24 | %18
 x16 | !tenuto!E4 !tenuto!E4 !tenuto!E4 !tenuto!E4 !tenuto!E4 E8 | x8 ^F4 z4 | x16 | x12 | x12 | %24
 x16 | x24 | x28 | x24 | x16 | x8 | x2 x2 x2 _DC | x8 | (F2 E_D) (E2 DC) x4 | x4 (E8 _D4) | x8 | %35
 x16 | x36 | x44 | x16 | x16 | x16 | x16 | x16 | x16 | x16 | x16 | x16 | %47
 !tenuto!C4 !tenuto!C4 !tenuto!C4 !tenuto!C4 | (D4 C4 =B,4 C4- | %49
 C4) !tenuto!C4 !tenuto!C4 (!tenuto!C4 | !>!D8)!ppp! C4 C4 | D2 z2 z4 x8 | x16 | x16 | x8 | x16 | %56
 x8 (G2 DE) | F2 F2 ED C2 (D2 E2) | F2 G2 A4 G2 DE | F2 F2 E2 E2 D2 DE | F2 ED E2 DC (D3 E) | x12 | %62
 x12 | z4 GF E2 F4 | EF E2 E2 E2 E2 FG | x12 | x12 | (!>!A4 G2 FG) (!>!A4 G2 AG) | x16 | x8 | x8 | %71
 x8 | x8 | x12 | x4 x2 ED | x4 x2 ED | CD x2 x4 | x8 | x12 | x8 | x8 | x8 | x8 | x12 | x16 | x16 | %86
 x16 | x16 | (F4 E4) F4 (G2 A2) | x16 | x16 | x16 | x16 | x16 |] %94
V:5
!p!"^Сла       –       –       –       ва                     в выш        –          них          Бо       –       –       –       –         гу.\nSla         –       –       –       va                    v vuish        –          nikh         Bo       –       –       –       –         gu." e12 [Bf]8 | %1
 e8 [Bf]8 | [ce-]4 [Gd]8 [ce]4 [cf]8- | %3
 [cf]4"^Хва       –         лим          Тя,                  кла–ня  –   ем         Ти            ся,   сла-во-сло – вим          Тя,\nKhva    –          lim           Tya,                 kla–nya  –  em          Ti           sya,   sla–vo–slo –  vim          Tya," ([ce]4 [Gd]4) [ce]4 [Bf]8 | %4
!p! !tenuto![Ae]4 [ce]4 !tenuto![Gd]4 [ce]4 !tenuto![Bf]4 [ce]2 [ce]2 | %5
!>(! !tenuto![Gd]4 [Ac]4!pp! [Bd]8!>)! | %6
"^бла–го      –     дар       –         им               Тя,                                                                                             Бо  – же. \nbla – go     –    dar       –       im           Tya,                                                                     Bo  – zhe.\n" [ce]4 [df]8 [ce]8 [Bd]4- | %7
 [Bd]4 ([eg]4 [df]4 [ce]4 d8) | x8!pp! !tenuto!f4 e4!pp! !tenuto![df]4 [ce]4 x8 | %9
!mf! (=B2 c2) d2 d2 (dc B2) c4!<(! (cd e2)!<)! | d2 d2!>(! (dc =B2 c4) (cd e2)!>)! | %11
!p!"^Е         –        ди    –     но  –  род        –       –       –       ный,                         Гос     –     по  –  ди      Бо        –        же,\nYe        –        di     –     no  –  rod        –       –       –       nuii,                          Gos    –     po  –  di        Bo       –       zhe,\n" d8 d4 e4 (e4 d8)!<(! ([ce]4 [Bd]2 [Be]2)!<)! | %12
!mf! ([df]4 [eg]4) [ce]4 [df]4!>(! ([Bd]4 [ce]4) ([Ac]4 [Bd]4)!>)! | %13
!p!"^Агн        –            че                      Бо        –       жий,        в зем      –        ляй        гре   –    хи                                     ми –ра, помилуй нас\nAgn        –            chye                 Bo        –        zhii,        v zyem    –       lyai         gre   –   khi                                     mi –" (d4 e4) (c4 d4) (B4 c4) A4 | %14
 (B4 G4) G4 E4 (G4 D4 E4) (A4 B4) |!ppp!"^– pa.\n– ra." G2 z2 z16 z16 | z16!pp! ((A2 B2 | %17
!>(! c4)) B4 !tenuto!c4 B4 (A4 B4)!>)! |!pp! c2 B2 c2 B2 !tenuto!c8 | %19
!p!!<(! !tenuto!cded !tenuto!cded !tenuto!cded !tenuto!cded !tenuto!cded!ff! !>![ce]8!<)! | %20
!>(! ([ce]2 [Bd]2 [=Ac]4)!p! !fermata!d4- d4-!>)! |!pp! d16- | d12- | d12- | d16- | %25
!pp!"^– ка.                                                Спо      –     до    –     би,            Гос       –      по  – ди, в день          сей               без    гре –\n– ka.                                                 Spo      –     do    –      bi,            Gos      –      po  –  di, v  den'           sei                 bez    gre –" (d8 G12)!p!!<(! ((G2 =A2))!<)! | %26
!mf! B4!>(! A4 A4 A2 A2 !tenuto!G4 (G2 A2) B2 A2!>)! | %27
"^– ха           со-хра-ни  –   ти  – ся нам.                                           Спо   –    до     –     би,       Гос-по–ди, в день   сей со-хра–\n– kha       so-khra-ni   –    ti – sya nam.                                          Spo   –     do     –     bi,       Gos-po-di,  v  den'    sei  so-khra-" !tenuto!B4 A2 A2 !tenuto!A4 AG F2!>(! (G8!>)! | %28
!pp! F8-) F4!pp! [Fc]4 | B6 [_DB]2 | [EB]2 [EB]2 [EB]2 B2 | !tenuto![_DB]4!<(! [DB]2 [EB]2!<)! | %32
 B4!>(! B4!<(! [_DB]2 [EB]2!>)!!<)! |!>(! !tenuto![FB]4 (!tenuto![EB]8 _D4)!>)! |!pp! [EB]4 [EB]4 | %35
 [EB]4 [EB]2 [EB]2 u[DB]8 | %36
!p!"^Бу – ди, Гос – по–ди, ми – лость,    Тво–я        на  нас,       я–ко–же у – по – ва   –    хом   на        Тя.\nBu – di,  Gos – po-di,  mi  – lost',       Tvo-ya      na  nas,      ya-ko-zhe u – po – va  –   khom na       Tya." E2!<(! F2!>(! !tenuto!G4 A2!<(! B2 !tenuto!_c4!>(! B4- B2!p! c2!<(! cB A2 !tenuto!B8!<)!!>)!!<)!!>)!!<)! | %37
!mf! [Gc]2 [Gc]2!<(! [Gc]2 [G=B]4 [Gc]2!ff! [Ad]8!>(! [Gc]4 c4!p! !fermata!B8 z8!<)!!>)! | z16 | %39
 z16 | z8 z4!p!"^Ис – це – ли\nIs   – tse – li"!<(! [=Bd]2 [ce]2!<)! | %41
!mf!!>(! ([df]12- [df]2 [ce]2)!>)! | %42
"^ду     –    шу         мо       –      ю.                                    К Те    –   бе                                          при           –           бе       –      гох.\ndu     –    shu       mo      –      yu.                                   K Te    –   be                                           pri            –           be       –     rokh."!<(! ([=Bd]2 [ce]2)!>(! ([df]2 [ce]2)!<(! ([=Bd]2 [ce]2)!f! (!>![df]4-!<)!!>)!!<)! | %43
!>(! [df]2 [ce]2!p! [=Bd]4- [Bd]2) z2!<(! ([Bd]2 [ce]2)!>)!!<)! | %44
!f!!>(! ([df]12- [df]2 [ce]2)!>)! | %45
!<(! ([=Bd]2 [ce]2!>(! !tenuto![df]2 [ce]2)!<(! ([=Bd]2 [ce]2)!ff! ([df]4-!<)!!>)!!<)! | %46
!>(! [df]2 [ce]2!p! [=Bd]8- [Bd]2) z2!>)! |!ppp! !tenuto!F4 !tenuto!G4 !tenuto!A4 !tenuto!G4 | %48
 (A4 G4 F4 G4 | !tenuto!F4) !tenuto!G4 (!tenuto!A4!<(! G2 FG!<)! | %50
!p!!>(! !>!A8)!ppp! !tenuto!G4 !tenuto!c4!>)! |"^нам.\nnam." z16 | %52
!p!"^Гос – по    –   ди,         по      –       ми    –     луй            мя,            ис       –        це    –      ли\nGos – po   –    di,         po      –       mi     –      lui            mya,           is       –       tse    –        li" !tenuto!f4 !tenuto!g4!pp! !tenuto!d4 !tenuto!g4 | %53
 !tenuto!f4!<(! !tenuto!g4!>(! !tenuto!d4 !tenuto!g4!<)!!>)! |!pp! !tenuto!f4 !tenuto!g4 | %55
"^ду       –     шу            мо    –      ю.\ndu       –    shu           mo    -      yu.""^ис       –       –       –          це  –  ли,          на  –  у  –  чи                 мя            тво     –       ри      –      ти             во –  лю\nis        –       –        –         tse  –  li,            na  –  u  –  chi                mya         tvo      –       ri       –       ti               vo  – lyu\n" !tenuto!d4 !tenuto!g4 !tenuto!f4!>(! !tenuto!g4!>)! | %56
!mf! !>!d4 !>!e4 !>!B4 | !tenuto!d4 !tenuto!e4 !tenuto!B4 | !tenuto!d4 !tenuto!e4 !tenuto!B4 | %59
!p!"^Тво   –    ю,               я        –          ко                  Ты                е          –            си   Бог мой:      я       –       ко                у\nTvo   –    yu,              ya      –          ko                  Tui                ye       –             si    Bog moi:     ya     –        ko               u" !tenuto!d4 !tenuto!e4 !tenuto!B4 | %60
 !tenuto!d4 !tenuto!e4 !tenuto!B4 | !tenuto!d4 !tenuto!e4 !tenuto!B4 | %62
!p! d2 cd e2 fe d2!<(! e2!<)! | %63
"^Те       –       бе               ис    –     точ         –        –         –      ник                    жи  –  во  –  та,       Про–ба–ви  ми–лость Тво– \nTe       –       bye             is     –      toch       –        –         –      nik                     zhi  –   vo  –  ta.       Pro –ba –vi   mi–lost'    Tvo–"!>(! d2 B2 cd e2 !tenuto!d4!>)! | %64
!mf! B2 B2 cd e2!<(! (!tenuto!e2 Bc)!<)! | !tenuto!d4!>(! e4 B4!>)! | e2 f2!<(! f2 f2 f2 g2!<)! | %67
!ff!"^–ю                          ве        –           ду–щим Тя.\n–yu                         ve        –       dushchim Tya," (!>!a4 g2 fg) (!>!a4 g2 fe) | %68
!>(! f4 e4 d8!>)! | %69
!pp!"^Свя –    тый                                                                         Без–смерт-ный, по–\nSvya  –   tui                                                                          Bez–smert-nui,   po–\n" !tenuto!B4 !tenuto!B4- | %70
 B8- | B6!<(! AB!<)! |!mf! !tenuto!c4!>(! c2 d2!>)! | %73
!p!"^–ми–луй нас.\n–mi– lui  nas.\n" !tenuto!e4 !tenuto!d4!pp! !tenuto!c4 | %74
"^Свя   –   тый                                                                          Без–смертный, по-ми-луй нас.  Свя-тый Бо–же,\nSvya  –    tui                                                                           Bez–smertnuii, po–mi–lui   nas.  Svya-tui Bo–zhe,  \n" c4 G4- | %75
 G8- | G6!<(! c2!<)! |!>(! !tenuto![Ac]4 [Gc]2 [cd]2!>)! | %78
!p! !tenuto![ce]4!>(! !tenuto![=Bd]4 !tenuto!c4!>)! | %79
!pp! !tenuto![ce]2 [ce]2 !tenuto![=Bd]2 [=Ac][Bd] | %80
"^Свя-тый Креп-кий,  Свя  – тый   Без      –   смерт-ный, по  –  ми – луй   нас.\nSvya-tui  Krep– kii,    Svya – tui     Bez      –   smert-nuii, po   –  mi  – lui    nas." !tenuto![ce]2 [ce]2 !tenuto![=Bd]2 [=Ac][Bd] | %81
 !tenuto![ce][=Bd] [ce]2!<(! ([Bd]2 [ce]2)!<)! |!f! !tenuto![df]4!>(! [ce]2 [cd]2!>)! | %83
!p! !tenuto![ce]4!<(! !tenuto![=Bd]4 !tenuto!c4!<)! | %84
!mf!"^Сла  –  ва    От–цу    и      Сы–ну\nSla   –   va    Ot–tsu    i       Sui-nu" !tenuto!B4!<(! B2 B2!>(! !tenuto!B2 B2 B2 B2!<)!!>)! | %85
"^и    Свя –то –му       Ду –  ху,        и   ны–не   и при-сно и   во     ве  – ки веков, Аминь.    Свя     –     –    тый  Без –\n i    Svya–to– mu      Du – khu,      i    nui–ne   i  pri –sno  i    vo     ve  – ki   vekov, Amin'.     Svya    –      –    tui    Bez –" B2 B2 B2!<(! Bc!>(! !tenuto!d4 e4!<)!!>)! | %86
 [Gc]2 [Gc]2 [Gc]2 [Gc]2 !>!B2 [Gc]2 [Gc]2 B2 | !>![Gc]4 [Gc]2 [Gc]2 [Bd]2 [Gc]2 !>![Bd]4 | %88
!f! (d4 c4) [Bd]4 (e2 f2) | %89
"^–смерт-ный, по –ми–луй нас.      Свя-тый  Бо – же,   Свя-тый Креп-кий,  Свя–тый Бо – же,    Свя–тый  Креп-кий,\n–smert–nui,   po– mi– lui  nas.      Svya-tui   Bo – zhe, Svya-tui  Krep–kii,    Svya–tui   Bo – zhe,  Svya-tui     Krep-kii,\n" !>![eg]4!mf! [Bf]2 [Be]2 [Bf]2 [Be]2 !tenuto![Bd]4 | %90
!ff! [Ac]2 [Ac]2 [Ad]2 cd [ce]2 [ce]2 [Ad]2 de | [cf]2 [ce]2 [cf]2 ed [ce]2 dc [cd]2 [ce]2 | %92
"^Свя     –      тый    Без  –  смерт–ный, по   –   ми – луй  нас.\nSvya    –      tui      Bez  –  smert–nui,   po  –    mi –  lui   nas.      \n" (f2 e2)!<(! [df]2 [eg]2!ff! !>!a4!>(! [eg]2 [df]2!<)!!>)! | %93
!>(! !tenuto![ce]4 !tenuto![=Bd]4!p! !fermata!c8!>)! |] %94
V:6
 x20 | (e4 c4) x8 | x24 | x24 | x24 | x16 | x24 | x4 x4 x4 x4 B8- | B8- B8 d4 c4 B4 A4 | %9
 G2 x2 x16 | x16 | B8 B4 (A2 B2) (c4 B4 G4) x4 x2 x2 | x32 | B8 B8 B8 x4 | %14
 x4 x4 x4 x4 x4 x4 x4 A8 | G16- G16- G4- | G16 A2 B2 | c4 x4 x16 | x16 | %19
 !tenuto![Ac]4 !tenuto![Ac]4 !tenuto![Ac]4 !tenuto![Ac]4 !tenuto![Ac]4 !>!G8 | %20
 G8 !fermata![^F=A]4 z4 | x16 | x12 | x12 | x16 | x8 x8 x4 G2 =A2 | x28 | x24 | x16 | (F4 E2) x2 | %30
 x2 x2 x2 _DC | x8 | (F2 E_D) (E2 DC) x4 | x16 | x8 | x16 | x36 | x16 x8 (G2 =A2) x4 x8 x4 | x16 | %39
 x16 | x16 | B12- B2 c2 | (G2 c2) (_B2 c2) (G2 c2) (_B4- | B2 c2 G4- G2) x2 (G2 c2) | B12- B2 c2 | %45
 G2 c2 _B2 c2 (G2 c2) (_B4- | B2 c2 G8- G2) x2 | x16 | x16 | x16 | x16 | =B16- | B8- B8- | %53
 B6"^по  –     ми  –    луй \npo  –     mi   –    lui" =Bc (d2 c2) B4- | B8 | %55
 =B8- B2!<(! Bc (d2 c2) | x12 | x12 | x12 | x12 | x12 | x12 | !>!B4 !>!c4 !>!G4 | %63
 !>!B4 !>!c4 !>!F4!<)! | (B4 c4) G4 | x12 | B2 B2 B2 B2 B2 e2 | %67
 !>!e2 !>!f2 !>!c2 !>!f2 !>!e2 !>!f2 !>!c2 !>!f2 | d4 c4 B8 | z8 | z8 | z8 | z4 z2 c2 | c4 =B4 c4 | %74
 c4 G4- | G8- | G6 FG | x8 | x12 | x8 | x8 | x8 | x8 | x12 | F4 F2 G2 !tenuto!A2 A2 A2 A2 | %85
 A2 A2 A2 A2 A4 G4 | x16 | x16 | B8 B4 B4 | x16 | x16 | x16 | c4 x4 x8 | x16 |] %94
V:7
 z16 z4 | z16 | z24 | z24 | z24 | z16 | z24 | z24 | z32 | %9
!p!"^Гос       –       –       –       –       –       –      по   –    ди,                       Сы        –       –       –       –       –       –       –       –  \nGos      –      –     –      –     –     –     po  –    di,                  Sui      –     –     –     –     –      –     –      –" !tenuto!G,8- G,4 F,4 A,4 | %10
 (G,8!>(! A,4 F,4)!>)! |!pp!"^– не. \n– ne." B,2 z2 z4 z8 z16 z4 | z32 | %13
!p! (!tenuto!F,4 G,4) (E,4 F,4) (D,4 E,4) C,4 | (D,4 B,,4) C,4 A,,4 (B,,4 G,,4 A,,4) (F,,4 B,,4) | %15
!ppp!"^– pa.\n– ra." z4"^коротким звуком (short notes)"!mf!"^Се  –  дяй о-дес-ну –  ю Отца, помилуй нас.     Я–ко Ты  е–си     е-дин Свят,   Ты      е  –   си    е – дин\nSe  –  dyai o-des-nu – yu Otsa,  pomilui  nas.     Ya-ko Tui ye-si     ye-din Svyat,  Tui    ye  –  si     ye - din" (B,,2 C,2) !tenuto!_D,2 C,2 C,2 !tenuto!C,4 C,2 C,2 B,,2 C,2 D,2 C,4 (B,,2 C,2) | %16
 _D,2 C,2 D,2 C,2 C,B,, A,,2 B,,4 B,,4 | %17
!>(! [A,,E,]4 [E,,E,]4 !tenuto![A,,E,]4 [E,,E,]4 !tenuto!E,8!>)! | %18
!pp! [A,,E,]2 [B,,E,]2 [A,,E,]2 [E,,E,]2 !tenuto![A,,E,]8 | %19
!p!!<(! (E,2 D,2) (C,2 D,2) (E,2 D,2) (C,2 B,,2) (A,,2 B,,2)!ff! !>!C,8!<)! | %20
!>(! (C,2 D,2 E,4)!p! !fermata![D,,=A,,D,]4 z4!>)! | z16 | z8 z4 | z8 z4 | z16 | %25
 z8 z12!pp!"^Спо       –      до   –   би,               Гос       –       –       –       –       –       –      \nSpo        –     do   –    bi,               Gos       –       –       –       –       –       –" G,4 | %26
!p! !tenuto!C,4 C,4 !tenuto!C,8- C,12 | %27
"^– по       –       –       –       –       –         ди.\n– po       –       –       –       –       –          di." !tenuto!C,8- C,8 (C,8 | %28
!pp! F,2) z8!mf!"^Бла-го-сло-вен    е –   си,     Гос    –    по– ди,        Бо– же О–\nBla–go-slo–ven    ye –  si,      Gos   –    po – di,        Bo–zhe O–"!<(! F,2 F,2 G,2!<)! | %29
!>(! A,4 _G,2 G,2!>)! | !tenuto!_G,4 G,2 G,2 | !tenuto!_G,4!<(! F,2 G,2!<)! | %32
"^–тец                на       –       ших– и      хваль– но  и  про-слав-ле-но     и –  мя Тво– е      во     ве – ки,    А  –  минь.\n–tets                na       –      shikh–i      khval' – no   i   pro-slav– le–no      i  – mya Tvo–ye   vo     ve –  ki,     A  –  min'." !tenuto!A,4!>(! _G,4!<(! F,2 G,2!>)!!<)! | %33
 !tenuto!A,4 _G,2!>(! G,2 G,2 G,2 G,2 G,2!>)! | _G,2 G,2 G,2 G,2 | _G,2 G,2 G,F, E,2 uF,8 | %36
!p! E,2!<(! E,2!>(! !tenuto![E,,E,]4 [E,,E,]2!<(! [E,,E,]2 !tenuto![E,,E,]4!>(! [E,,E,]4- [E,,E,]2!p! A,,2!<(! A,,B,, _C,2 E,8!<)!!>)!!<)!!>)!!<)! | %37
!mf! C,2 C,2!<(! C,2 D,4 C,2!ff! B,,8!>(! C,4 C,4!p! !fermata![G,,D,]8 z8!<)!!>)! | z16 | z16 | %40
 z16 | z16 | z16 | %43
 z8 z4"^К Те    –   бе                                          при           –           бе       –      гох.\nK Te    –   be                                           pri            –           be       –     rokh."!<(! (G,,2 C,2)!<)! | %44
!>(! (B,,12- B,,2 C,2)!>)! |!<(! (D,2 C,2!>(! B,,2 C,2)!<(! (D,2 C,2)!ff! (B,,4!<)!!>)!!<)! | %46
!>(! B,,2 C,2!p! G,,8- G,,2) z2!>)! | %47
!ppp!"^Гос–по–ди,  при  –  бе       –       –       –       –       –      жи    –     ще    был                            е –  си\nGos-po–di,   pri    –  be       –       –       –       –       –      zhi    –  shche  buil                           ye – si" !tenuto!A,,4 !tenuto!C,4 !tenuto!F,,4 !tenuto!C,4 | %48
!p!"^Гос–по–ди,  прибежище был е– си   нам                              в род        и\nGos-po–di,  pribezhishche buil ye-si  nam                             v rod         i" !>!A,4!pp! G,2 G,2 F,2 G,2 G,2 G,2 | %49
 F,4 G,2 G,2 F,4!<(! z4!<)! |!p! z4 (A,4 G,4) G,4 |"^нам.\nnam.""^род.\nrod." (F,16- | %52
 F,4 E,4!pp!!pp!"^Гос       –       –       –       –       –       –           по       –       –       –       –   \nGos      –       –       –       –       –       –           po       –       –       –       –" !>!D,8- | %53
 D,6) D,!pp!E, (F,2 E,2) D,4- | D,6"^по  – \npo  –"!<(! D,E,!<)! | %55
"^ди,                                                                Гос       –       –       –         по       –       –       –       –       –      ди,""^–ми     –        луй   мя, \n– mi     –        lui     mya," F,6 F,!<(!G,!>(! (!>!A,4 G,4)!<)!!>)! | %56
!mf! (!>!F,4!>(! G,8)!>)! | (!>!G,8 F,2 G,2) | (!>!A,8 G,4) | %59
!p!"^Ты                                е       –       –       –       –       си                                           Бог         мой:    я           –             ко\nTui                              ye      –       –       –       –        si                                            Bog         moi:    ya         –            ko" !tenuto!G,8 G,4- | %60
 G,4 !tenuto!G,8 | (F,4 G,4) A,4 |!p! !>!B,4 !>!C4 !>!G,4 | %63
"^е       –       –       –   си                 Бог                               мой.\nye     –       –       –   si                  Bog                               moi." !>!F,4 !>!G,4 !>!B,,4 | %64
 (!>!B,4 C4) !>!G,4 | !tenuto!F,4 !tenuto!G,4 !tenuto!B,,4 | G,2 F,2 F,2!<(! F,2 F,2 B,2!<)! | %67
 (!>!C4 E,2 A,B,) (!>!C4 E,2 A,2) |!>(! B,4 C,4 B,,8!>)! | z8 | z8 | z8 | z4 z2"^по–\npo–\n" F,2 | %73
!p!"^–ми–луй нас.\n–mi– lui  nas.\n" !tenuto!G,4 !tenuto![G,,G,]4!pp! !tenuto![C,G,]4 | z8 | z8 | %76
 z4 z2!p!"^Без–смертный, по-ми-луй нас.  Свя-тый Бо–же,\nBez–smertnuii, po–mi–lui   nas.  Svya-tui Bo–zhe,  \n"!<(! F,G,!<)! | %77
!>(! !>!A,4 G,2 F,2!>)! |!p! !tenuto!G,4!>(! !tenuto!G,4 !tenuto!G,4!>)! | %79
!p!"^Свя   –   тый\nSvya  –    tui" !tenuto!G,4 !tenuto!G,4 | %80
"^Бо     –     же,                Свя      –       тый   Без –смерт-ный, по – ми – луй   нас. \nBo     –    zhe,                Svya    –       tui     Bez–smert– nui,   po – mi – lui     nas.\n""^Свя-тый Креп-кий,  Свя  – тый   Без      –   смерт-ный, по  –  ми – луй   нас.\nSvya-tui  Krep– kii,    Svya – tui     Bez      –   smert-nuii, po   –  mi  – lui    nas." !tenuto!G,4 !tenuto!G,4 | %81
 !tenuto!G,4!<(! !tenuto!G,2!<(! F,G,!<)!!<)! |!f! !>!A,4!>(! G,2 F,2!>)! | %83
!p! !tenuto!G,4!<(! !tenuto![G,,G,]4 !tenuto![C,G,]4!<)! | %84
!mf!"^Сла  –  ва    От–цу    и      Сы–ну\nSla   –   va    Ot–tsu    i       Sui-nu" !tenuto!B,,4 B,,2 B,,2 !tenuto!B,,2 B,,2 B,,2 B,,2 | %85
 B,,2 B,,2 B,,2!<(! B,,2!>(! !tenuto!B,,4 E,4!<)!!>)! | %86
 [C,E,]2 [C,E,]2 [C,E,]2 [C,E,]2 !>![G,,E,]2 [C,E,]2 [C,E,]2 [G,,E,]2 | %87
 !>![C,E,]4 [C,E,]2 [C,E,]2 [B,,F,]2 [C,E,]2 !>![B,,F,]4 |!f! (D,4 E,2 F,G,) !>!A,4 (G,2 A,2) | %89
"^–смерт-ный, по –ми–луй нас.       Свя     –    тый           Бо     –      же,                 Свя    –    тый            Креп    –     кий,\n–smert–nui,   po– mi– lui  nas.       Svya    –    tui             Bo    –      zhe,                Svya   –    tui               Krep    –     kii," !>!B,4!mf! A,2 G,2 A,2 G,2 !tenuto!F,4 | %90
!f! A,4 [F,A,]4 [C,C]4 [F,A,]4 | C4 [F,C]4 [C,C]4 ([F,A,]2 G,2) | %92
 A,4!<(! G,2 G,A,!f! !>!B,4!>(! C2 A,2!<)!!>)! | %93
!>(! !tenuto!G,4 !tenuto![G,,G,]4!p! !fermata![C,G,]8!>)! |] %94
V:8
 x20 | x16 | x24 | x24 | x24 | x16 | x24 | x24 | x32 | x20 | x16 | x36 | x32 | x28 | x36 | %15
 E,,16- E,,16- E,,4- | E,,16- E,,4 | z4 z4 z4 z4 (C,4 E,,4) | x16 | x28 | x16 | x16 | x12 | x12 | %24
 x16 | x24 | x28 | x24 | z4 z4 z2 F,,2 F,,2 G,,2 | A,,4 [_G,,B,,]2 [G,,B,,]2 | %30
 [_G,,B,,]4 [G,,B,,]2 [G,,B,,]2 | [_G,,B,,]4 [F,,B,,]2 [G,,B,,]2 | %32
 !tenuto![A,,B,,]4 !tenuto![_G,,B,,]4 [F,,B,,]2 [G,,B,,]2 | %33
 [A,,B,,]4 [_G,,B,,]2 [G,,B,,]2 [G,,B,,]2 [G,,B,,]2 [G,,B,,]2 [G,,B,,]2 | %34
 [_G,,B,,]2 [G,,B,,]2 [G,,B,,]2 [G,,B,,]2 | [_G,,B,,]2 [G,,B,,]2 B,,2 [E,,B,,]2 [F,,B,,]8 | %36
 E,,2 E,,2 x32 | x44 | x16 | x16 | x16 | x16 | x16 | x16 | x16 | x16 | x16 | x16 | %48
 (!tenuto!B,,4 C,4 G,,4 C,4 | A,,4) C,4 F,,4 (C,4 | B,,8) C,4 C,4 | G,,16- | [E,,G,,]8 G,,8- | %53
 G,,8 G,,8- | G,,8 | G,,8- G,,8 | B,,12 | B,,12 | B,,12 | [B,,,B,,]8 [B,,,B,,]4- | %60
 [B,,,B,,]4 [B,,,B,,]8 | [B,,,B,,]8 B,,4 | [E,,B,,]6 [E,,B,,]6 | [E,,B,,]6 [E,,B,,]6 | %64
 [E,,B,,]6 [E,,B,,]6 | x12 | E,2 B,,2 B,,2 B,,2 B,,2 B,2 | x16 | x16 | x8 | x8 | x8 | x8 | x12 | %74
 x8 | x8 | x8 | x8 | G,4 G,,4 C,4 | C,2 C,2 G,,2 G,,2 | C,2 C,2 G,,2 G,,2 | C,2 C,2 (G,,2 C,2) | %82
 B,,4 C,2 F,2 | x12 | x16 | x16 | x16 | x16 | x16 | x16 | x16 | (A,2 G,2) x4 x8 | x16 | x16 |] %94
V:9
 x20 | x16 | x24 | x24 | x24 | x16 | x24 | x24 | x32 | x20 | x16 | x36 | x32 | x28 | x36 | x36 | %16
 x20 | x24 | x16 | x28 | x16 | x16 | x12 | x12 | x16 | x24 | x28 | x24 | x16 | x8 | x8 | x8 | x12 | %33
 x16 | x8 | x2 x2 _G,,F,, x2 x8 | x36 | x44 | x16 | x16 | x16 | x16 | x16 | x16 | x16 | x16 | x16 | %47
 x16 | x16 | x16 | x16 | x16 | x16 | x16 | x8 | x16 | x12 | x12 | x12 | x12 | x12 | x12 | x12 | %63
 x12 | x12 | x12 | x12 | x16 | x16 | x8 | x8 | x8 | x8 | x12 | x8 | x8 | x8 | x8 | x12 | x8 | x8 | %81
 x8 | x8 | x12 | x16 | x16 | x16 | x16 | x16 | x16 | x16 | x16 | x16 | x16 |] %94

